X: 335
T: Ride On Cossacks
B: tunes
M:4/4
Q: 1/4=100
K:Am
V:1 
"Am"A2AAA2A2|e2eed2c2|"G"g2ggg2f2|"C"e2fed2c2|
"Am"A2AAA2A2|e2eed2c2|"Em"e2efedcb,|"Am"A2AAA4|
"F"f2ff f2d2|"Gm"g2ggg2_b2|"F"a2aaa2_b2|"Am"a3_b agfe|
"Dm"f3e d2f2|"C"e3dc2e2|"Dm"d2f2e2d2|"Am"A8|
"F"a2aa a2f2|"Gm"g2ggg2_b2|"F"a2aaa2_b2|"Am"a3_b agfe|
"Dm"f3e d2f2|"C"e3dc2e2|"Dm"d2f2e2d2|"Am"A8|
W: 
% abcbook-tune_id 6391436b01cc65ceb180d695
% abcbook-tune_composer_id 
% abcbook-boost 10
% abcbook-difficulty 0
% abcbook-tags andrew kordas,steve ryan,no youtube available
% abcbook-tablature 
% abcbook-transpose 
% abcbook-tuning 
% abcbook-lastupdated 1675501145894
% abcbook-soundfonts 
% abcbook-repeats 3


